src/24/actions/snap-grid-guide-intersections.svg

<svg xmlns="http://www.w3.org/2000/svg" viewBox="0 0 24 24">
  <defs id="defs3051">
    <style type="text/css" id="current-color-scheme">
      .ColorScheme-Text {
        color:#5d656b;
      }
      .ColorScheme-Highlight {
        color:#3daee9;
      }
      </style>
  </defs>
 <path 
     style="fill:currentColor;fill-opacity:1;stroke:none" 
     d="M 11.5 4 L 11.5 13 L 12.5 13 L 12.5 4 L 11.5 4 z M 8.5 5 L 8.5 9 L 10.5 7 L 8.5 5 z M 15.5 5 L 13.5 7 L 15.5 9 L 15.5 5 z M 19.466797 8.2519531 L 19.460938 8.2539062 L 19.460938 8.2558594 L 19.466797 8.2519531 z M 19.460938 8.2558594 L 12.568359 13 L 13 13 L 13 13.919922 L 20 9.1074219 L 19.460938 8.2558594 z M 11 14.080078 L 4.3007812 18.691406 L 4.8828125 19.5 L 11.427734 15 L 11 15 L 11 14.080078 z M 4.3007812 18.691406 L 4.2988281 18.6875 L 4.2988281 18.693359 L 4.3007812 18.691406 z M 11.5 15 L 11.5 20 L 12.5 20 L 12.5 15 L 11.5 15 z "
     class="ColorScheme-Text"
     />
 <path 
     style="fill:currentColor;fill-opacity:1;stroke:none" 
     d="M 10 12 L 10 16 L 14 16 L 14 12 L 10 12 z M 11 13 L 13 13 L 13 15 L 11 15 L 11 13 z "
     class="ColorScheme-Highlight"
     />
</svg>

<svg xmlns="http://www.w3.org/2000/svg" viewBox="0 0 24 24"><path d="M11.5 4v9h1V4h-1zm-3 1v4l2-2-2-2zm7 0l-2 2 2 2V5zm3.967 3.252l-.006.002v.002l.006-.004zm-.006.004L12.568 13H13v.92l7-4.813-.54-.851zM11 14.08l-6.7 4.611.583.809 6.545-4.5H11v-.92zm-6.7 4.611l-.001-.003v.005l.002-.002zM11.5 15v5h1v-5h-1z" fill="currentColor" color="#5d656b"/><path d="M10 12v4h4v-4h-4zm1 1h2v2h-2v-2z" fill="currentColor" color="#3daee9"/></svg>
